img/know-how-item-3.svg

<svg width="21" height="24" viewBox="0 0 21 24" fill="none" xmlns="http://www.w3.org/2000/svg">
<path d="M0 24H21V6.54545L13.8158 0H0V24Z" fill="#F35A05"/>
<path d="M6.2032 7C5.84656 7 5.55744 7.29848 5.55744 7.66667V8.75616C5.55744 9.0387 5.38234 9.28568 5.1369 9.41069C4.98353 9.48881 4.83589 9.57709 4.69481 9.6747C4.46738 9.83203 4.17254 9.86514 3.93544 9.72382L3.02076 9.17863C2.7119 8.99453 2.31696 9.10378 2.13863 9.42265L1.49287 10.5773C1.31455 10.8962 1.42038 11.3039 1.72924 11.488L2.64401 12.0333C2.88078 12.1744 3.00052 12.454 2.98272 12.7357C2.9772 12.8231 2.9744 12.9112 2.9744 13C2.9744 13.0888 2.9772 13.1769 2.98272 13.2643C3.00052 13.546 2.88078 13.8256 2.64401 13.9667L1.72924 14.512C1.42038 14.6961 1.31455 15.1038 1.49287 15.4226L2.13863 16.5773C2.31696 16.8962 2.7119 17.0055 3.02076 16.8214L3.93544 16.2762C4.17253 16.1349 4.46737 16.168 4.6948 16.3253C4.83589 16.4229 4.98353 16.5112 5.1369 16.5893C5.38234 16.7143 5.55744 16.9613 5.55744 17.2438V18.3333C5.55744 18.7015 5.84656 19 6.2032 19H7.49472C7.85136 19 8.14048 18.7015 8.14048 18.3333V17.2438C8.14048 16.9613 8.31558 16.7143 8.56102 16.5893C8.71439 16.5112 8.86203 16.4229 9.00311 16.3253C9.23055 16.168 9.52538 16.1349 9.76248 16.2762L10.6772 16.8214C10.986 17.0055 11.381 16.8962 11.5593 16.5773L12.205 15.4226C12.3834 15.1038 12.2775 14.6961 11.9687 14.512L11.0539 13.9667C10.8171 13.8256 10.6974 13.546 10.7152 13.2643C10.7207 13.1769 10.7235 13.0888 10.7235 13C10.7235 12.9112 10.7207 12.8231 10.7152 12.7357C10.6974 12.454 10.8171 12.1744 11.0539 12.0333L11.9687 11.488C12.2775 11.3039 12.3834 10.8962 12.205 10.5773L11.5593 9.42265C11.381 9.10378 10.986 8.99453 10.6772 9.17863L9.76247 9.72382C9.52538 9.86514 9.23054 9.83203 9.00311 9.67469C8.86203 9.57709 8.71439 9.48881 8.56102 9.41069C8.31558 9.28568 8.14048 9.0387 8.14048 8.75616V7.66667C8.14048 7.29848 7.85136 7 7.49472 7H6.2032Z" stroke="white" stroke-width="2" stroke-linecap="round" stroke-linejoin="round"/>
</svg>

<svg xmlns="http://www.w3.org/2000/svg" width="21" height="24" fill="none"><path fill="#F35A05" d="M0 24h21V6.545L13.816 0H0v24Z"/><path stroke="#fff" stroke-linecap="round" stroke-linejoin="round" stroke-width="2" d="M6.203 7a.656.656 0 0 0-.646.667v1.09c0 .282-.175.529-.42.654a3.841 3.841 0 0 0-.442.264c-.228.157-.522.19-.76.049l-.914-.545a.635.635 0 0 0-.882.244l-.646 1.154a.679.679 0 0 0 .236.911l.915.545c.237.141.357.421.339.703a4.192 4.192 0 0 0 0 .528c.018.282-.102.562-.339.703l-.915.545a.678.678 0 0 0-.236.91l.646 1.155a.635.635 0 0 0 .882.244l.914-.545c.238-.141.532-.108.76.05.14.097.289.185.442.263.245.125.42.372.42.655v1.09c0 .367.29.666.646.666h1.292a.656.656 0 0 0 .645-.667v-1.09c0-.282.176-.529.421-.654a3.84 3.84 0 0 0 .442-.264c.228-.157.522-.19.76-.049l.914.545a.635.635 0 0 0 .882-.244l.646-1.154a.678.678 0 0 0-.236-.911l-.915-.545c-.237-.141-.357-.421-.339-.703a4.207 4.207 0 0 0 0-.528c-.018-.282.102-.562.339-.703l.915-.545a.679.679 0 0 0 .236-.91l-.646-1.155a.635.635 0 0 0-.882-.244l-.915.545c-.237.141-.531.108-.759-.05a3.843 3.843 0 0 0-.442-.263.746.746 0 0 1-.42-.655v-1.09A.656.656 0 0 0 7.494 7H6.203Z"/></svg>
